images/svg/BLOG.svg

<svg width="27" height="30" viewBox="0 0 27 30" fill="none" xmlns="http://www.w3.org/2000/svg">
<path d="M22.3359 29.1928C22.3359 29.5092 22.5972 29.7682 22.9164 29.7682H25.7603C26.0795 29.7682 26.3408 29.5092 26.3408 29.1928V26.9009H22.336L22.3359 29.1928Z" fill="#CAD3DB"/>
<path d="M25.9637 8.28875C25.7258 7.27609 25.3486 6.27492 24.8551 5.30816C24.6578 4.92267 24.0193 4.92267 23.8221 5.30816C22.9002 7.10891 22.4099 9.02111 22.3486 10.991H26.3283C26.2989 10.0831 26.1801 9.17707 25.9637 8.28859L25.9637 8.28875Z" fill="#CAD3DB"/>
<path d="M22.3359 12.1421H26.3407V25.7507H22.3359V12.1421Z" fill="#CAD3DB"/>
<path d="M14.8722 22.4043C13.7701 22.4043 12.873 23.2932 12.873 24.3856C12.873 25.4782 13.7701 26.3673 14.8722 26.3673C15.9742 26.3673 16.8706 25.4784 16.8706 24.3856C16.8706 23.2932 15.9742 22.4043 14.8722 22.4043Z" fill="#CAD3DB"/>
<path d="M0 3.05671V28.6683C0 29.276 0.497042 29.7686 1.10988 29.7686H18.2194C18.8324 29.7686 19.3293 29.2759 19.3293 28.6683V3.05671C19.3293 2.30976 19.6331 1.52413 20.055 0.999023H2.07559C0.929283 0.999023 5.38638e-05 1.92026 5.38638e-05 3.05671H0ZM2.46815 17.2129H16.8636C17.2122 17.2129 17.4945 17.493 17.4945 17.8384C17.4945 18.1838 17.2124 18.4639 16.8636 18.4639L2.46815 18.4637C2.11953 18.4637 1.83723 18.1836 1.83723 17.8382C1.83723 17.493 2.11932 17.2129 2.46815 17.2129V17.2129ZM1.83723 13.4728C1.83723 13.1274 2.11932 12.8473 2.46815 12.8473H16.8636C17.2122 12.8473 17.4945 13.1274 17.4945 13.4728C17.4945 13.8183 17.2124 14.0984 16.8636 14.0984H2.46815C2.11932 14.0984 1.83723 13.8183 1.83723 13.4728ZM10.0506 27.1952H2.46778C2.11915 27.1952 1.83685 26.9151 1.83685 26.5697C1.83685 26.2243 2.11895 25.9442 2.46778 25.9442H10.0506C10.3992 25.9442 10.6815 26.2243 10.6815 26.5697C10.6813 26.9151 10.3992 27.1952 10.0506 27.1952ZM10.0506 22.8296H2.46778C2.11915 22.8296 1.83685 22.5495 1.83685 22.2041C1.83685 21.8587 2.11895 21.5786 2.46778 21.5786H10.0506C10.3992 21.5786 10.6815 21.8587 10.6815 22.2041C10.6813 22.5498 10.3992 22.8296 10.0506 22.8296ZM14.8707 27.6179C13.0724 27.6179 11.6099 26.1679 11.6099 24.3854C11.6099 22.6032 13.0724 21.1533 14.8707 21.1533C16.6683 21.1533 18.1308 22.6032 18.1308 24.3854C18.1308 26.1677 16.6683 27.6179 14.8707 27.6179ZM6.05697 4.11676H12.6433C12.9919 4.11676 13.2742 4.39685 13.2742 4.74226C13.2742 5.08767 12.9921 5.36776 12.6433 5.36776L6.05697 5.36756C5.70834 5.36756 5.42604 5.08747 5.42604 4.74205C5.42604 4.39685 5.70814 4.11676 6.05697 4.11676V4.11676ZM16.8637 8.48213C17.2123 8.48213 17.4946 8.76222 17.4946 9.10764C17.4946 9.45305 17.2125 9.73314 16.8637 9.73314H2.46821C2.11958 9.73314 1.83728 9.45305 1.83728 9.10764C1.83728 8.76222 2.11938 8.48213 2.46821 8.48213H16.8637Z" fill="#CAD3DB"/>
<path d="M24.7493 3.05844V3.92144C24.6158 3.88701 24.4823 3.86968 24.3373 3.86968C23.6697 3.86968 23.0778 4.22073 22.7877 4.78467C21.714 6.87907 21.1742 9.10603 21.1742 11.4073V11.7986H20.5879V3.05804C20.5879 1.97047 21.4468 1.06713 22.5845 0.998047H22.6714C23.8148 0.998047 24.7493 1.91864 24.7493 3.05804L24.7493 3.05844Z" fill="#CAD3DB"/>
</svg>

<svg xmlns="http://www.w3.org/2000/svg" width="27" height="30" fill="none"><path fill="#CAD3DB" d="M22.336 29.193a.58.58 0 0 0 .58.575h2.844a.58.58 0 0 0 .58-.575V26.9h-4.004v2.292ZM25.964 8.289a13.237 13.237 0 0 0-1.109-2.98c-.197-.386-.836-.386-1.033 0a13.286 13.286 0 0 0-1.473 5.682h3.98a13.225 13.225 0 0 0-.365-2.702ZM22.336 12.142h4.005v13.609h-4.005V12.142ZM14.872 22.404c-1.102 0-1.999.89-1.999 1.982s.897 1.981 2 1.981a1.992 1.992 0 0 0 1.998-1.981 1.992 1.992 0 0 0-1.999-1.982Z"/><path fill="#CAD3DB" d="M0 3.057v25.611c0 .608.497 1.1 1.11 1.1h17.11c.612 0 1.11-.492 1.11-1.1V3.057c0-.747.303-1.533.725-2.058H2.075A2.067 2.067 0 0 0 0 3.057Zm2.468 14.156h14.396c.348 0 .63.28.63.625a.628.628 0 0 1-.63.626H2.468a.628.628 0 0 1-.63-.626c0-.345.281-.625.63-.625Zm-.63-3.74c0-.346.281-.626.63-.626h14.396c.348 0 .63.28.63.626a.628.628 0 0 1-.63.625H2.468a.628.628 0 0 1-.63-.625Zm8.213 13.722H2.468a.628.628 0 0 1-.631-.625c0-.346.282-.626.63-.626h7.584c.348 0 .63.28.63.626a.628.628 0 0 1-.63.625Zm0-4.365H2.468a.628.628 0 0 1-.631-.626c0-.345.282-.625.63-.625h7.584c.348 0 .63.28.63.625a.628.628 0 0 1-.63.626Zm4.82 4.788c-1.799 0-3.261-1.45-3.261-3.233 0-1.782 1.462-3.232 3.26-3.232 1.798 0 3.26 1.45 3.26 3.232 0 1.783-1.462 3.233-3.26 3.233ZM6.057 4.117h6.586c.349 0 .631.28.631.625a.628.628 0 0 1-.63.626H6.056a.628.628 0 0 1-.631-.626c0-.345.282-.625.631-.625Zm10.807 4.365c.348 0 .63.28.63.626a.628.628 0 0 1-.63.625H2.468a.628.628 0 0 1-.63-.625c0-.346.281-.626.63-.626h14.396ZM24.75 3.058v.863a1.621 1.621 0 0 0-.413-.051c-.667 0-1.26.35-1.55.915a14.385 14.385 0 0 0-1.613 6.622v.392h-.586V3.058c0-1.088.859-1.99 1.996-2.06h.087a2.07 2.07 0 0 1 2.078 2.06Z"/></svg>
